X:1
T:Illa, LM
T:Illa, LM
T:Lowell Mason, 1841
T:Public Domain Courtesy of the Cyber Hymnal™
C:Lowell Mason, 1841
Z:Public Domain
Z:Courtesy of the Cyber Hymnal™
%%score ( 1 2 ) ( 3 4 )
L:1/8
Q:1/4=130
M:4/4
K:F
V:1 treble 
V:2 treble 
V:3 bass 
V:4 bass 
V:1
 [CF]4 [CF]2 [CF]2 | [CE]4 (F2 A2) | (A2 G2) (F2 E2) | [CF]8 | [EG]4 [EG]2 [EG]2 | [FA]4 F4 | %6
 [EB]4 [FA]4 | [EG]8 | [CF]4 [CF]2 [CF]2 | [CE]4 (F2 A2) | (A2 G2) (F2 E2) | [CF]8 | %12
 [EG]4 [EG]2 [EG]2 | [Fc]4 z2 G2 | [FA]4 [EG]4 x2 | F8 |] %16
V:2
 x8 | x4 C4 | C4 C4 | x8 | x8 | x8 | x8 | x8 | x8 | x4 C4 | C4 C4 | x8 | x8 | x4 F4 | x10 | F8 |] %16
V:3
 [F,A,]4 [F,A,]2 [F,A,]2 | [G,B,]4 (A,2 C2) | (C2 B,2) (A,2 G,2) | [F,A,]8 | [C,C]4 [C,C]2 [C,C]2 | %5
 [F,C]4 [A,C]4 | [G,C]4 [F,C]4 | [C,C]8 | [F,A,]4 [F,A,]2 [F,A,]2 | [G,B,]4 (A,2 C2) | %10
 (C2 B,2) (A,2 G,2) | [F,A,]8 | [C,C]4 [C,C]2 [B,,C]2 | [A,,C]4 [B,,D]4 | C6 z2 x2 | [F,A,]8 |] %16
V:4
 x8 | x4 F,4 | C,4 C,4 | x8 | x8 | x8 | x8 | x8 | x8 | x4 F,4 | C,4 C,4 | x8 | x8 | x8 | %14
 C,4 (C,4 B,2) | x8 |] %16

